X: 14094
T: STEVE CLEMENT'S
C: Bob McQuillen Feb'09
B: Bob's Note Book 14 #94
%R: reel
%D:2009
Z: 2020 John Chambers <jc:trillian.mit.edu>
M: C
L: 1/8
K: G
BA \
| G2GE DEGA | B2dB AGED | GEDE GABG | AGAB d2Bd |
| edeg dBGA | B2dB AGED | GABd egdB | AGAB G2  :|
|: Bd \
| g2ed Bdge | dBGA BGED | E2GE DGBe | dBGB A2GA |
| B2BG ABGB | dedB AGEG | DEGB dege | dBAB G2  :|
%%begintext align
%% Fiddler Steve
%% Clement comes fom Toano, VA, and he
%% and I go back to happy times at the Augusta
%% Heritage Workshops in Elkins, WV. Each year he
%% comes to the Ralph Page Legacy Weekend, and we enjoy
%% our reunion. It's always a pleasure to see you, Steve.
%%endtext

%%sep 1 1 500

%%sep 1 1 500

